T: Lads Of Laois, The
M: 4/4
L: 1/8
K: Emin
It's quite easy for whistles  to just jump and octave for the first bars.  |EB,~B,2 EGFE|DA,~A,2 DEFD|  becomes |eB~B2|EGFE|dA~A2 DEFD| or |eB~B2|EGFE|DA~A2 DEFD|
